X: 72
T: Pollonesse #72
M: 3/4
L: 1/16
K: D
Q:120
d2B2 c4 d4|efed c2d2 e2f2|gagf efed c2d2|efed cdcB A4|
d2B2 c4 d4|efed c2d2 e2f2|gagf efed c2d2|egec d4 D4:|
a2F2 F2a2 a2gf|g2E2 E2g2 g2fe|f2D2 D2f2 f2ed|c2d2 edcB A4|
a2F2 F2a2 a2gf|g2E2 E2g2 g2fe|f2D2 D2f2 f2ed|egec d4 D4:|

